X: 7
T: Pigeon On The Gate
M: 4/4
L: 1/8
R: reel
K: G
   Ac \
| dGGF GedG | Gdce dcAG | =F2FA cFF2 | =F2dF cFAc |
| dGGF GedG | Gdce dcAG | =F2Ad fage | =fdcA G2  :|
|: Ac \
| dggf gagf | dgg2 bgag | d=ff2 afgf | d{e}=feg fdcA |
| G2gf gagf | dgg2 bgag | d=ff2 afge | =fdcA G2 :|
